!!!!SEGMENT: pl-kk--kk-i-382--013-001_fuhrer-robert--msza-na-4ry-glosy-kyrie.krn
!!!cenid: 18xx:1510
!!!COM: Führer, Robert
!!!COM-rismID: pe30001170
!!!CDT: 1807/06/02-1861/11/28
!!!CNT: Czech
!!!OPR: Msza na 4ry głosy
!!!OTL: Kyrie
!!!OMV: 001
!!!PDT:
!!!AGN: Sacred; Mass
!!!YEC: Copyright 2022 Narodowy Instytut Fryderyka Chopina (https://polishscores.org)
!!!YEM: License CC-BY-4.0 (https://creativecommons.org/licenses/by/4.0)
!!!SMS-siglum: PL-Kk
!!!SMS-shelfmark: Kk.I.382
!!!SMS-shelfwork: 013-001 M
!!!SMS-variant:
!!!SMS-altvar:
!!!NIFC-rismSourceID: 1001139027
!!!NIFC-rismChildID: 1001139162
!!!NIFC-islandoraID: pl-kk:6162
!!!URL-pdf-islandora: https://repozytorium.nifc.pl/islandora/object/pl-kk%3A6162/datastream/PDF/view
!!!URL-scan: https://polish.musicsources.pl/pl/lokalizacje/galeria/rekopisy/5994 @EN{Scan on Polish Music Sources Website} @PL{Skany w portalu Dziedzictwo Muzyki Polskiej w otwartym dostępie}
!!!IIIF:
!!!ONB-nifc: UWAGA: obsada: S (T 1), T 2, B 1, B 2; S (T 1): skan 0028; T 2: skan 0100; B 1: skan 0176; B 2: skan 0248
!!!AIN: 2 empty 2 tenor
!!!key:
**kern	**text	**dynam	**kern	**text	**dynam	**kern	**text	**dynam	**kern	**text	**dynam
*part4	*	*	*part3	*	*	*part2	*	*	*part1	*	*
*staff4	*	*	*staff3	*	*	*staff2	*	*	*staff1	*	*
*Iempty	*	*	*Iempty	*	*	*Itenor	*	*	*Itenor	*	*
*I"Bas IIgi	*	*	*I"Bas I	*	*	*I"Tenor IIgi	*	*	*I"Soprano vel Tenore I.	*	*
*I'B 2	*	*	*I'B 1	*	*	*I'T 2	*	*	*I'S (T 1)	*	*
*clefF4	*	*	*clefF4	*	*	*clefGv2	*	*	*clefGv2	*	*
*k[]	*	*	*k[]	*	*	*k[]	*	*	*k[]	*	*
*C:	*	*	*C:	*	*	*C:	*	*	*C:	*	*
*M3/4	*	*	*M3/4	*	*	*M3/4	*	*	*M3/4	*	*
=1	=1	=1	=1	=1	=1	=1	=1	=1	=1	=1	=1
!LO:TX:a:t=P:problem=w źródle "Kyrie" zapisane przed pierwszym taktem na pięciolinii	!	!	!LO:TX:a:t=P:problem=w źródle "Kyrie" zapisane przed pierwszym taktem na pięciolinii	!	!	!	!LO:TX:a:t=P:problem=w źródle "Kyrie" zapisane przed pierwszym taktem na pięciolinii i częściowo przed pięciolinią	!	!LO:TX:a:t=P:problem=w źródle "Kyrie" zapisane przed pierwszym taktem na pięciolinii i częściowo przed pięciolinią	!	!
!	!	!	!	!	!	!LO:TX:t=P:problem=brak przenośnika oktawowego	!	!	!LO:TX:a:i:t=Kyrie	!	!
!LO:TX:a:i:t=Kyrie	!	!	!LO:TX:a:i:t=Kyrie	!	!	!LO:TX::a:i:t=Kyrie	!	!	!LO:TX:a:i:t=Andante.	!	!
!LO:TX:a:i:t=Andante	!	!	!	!	!	!	!	!	!	!	!
!LO:TX:a:i:t=Msza na 4ry głosy Męzkie	!	!	!LO:TX:a:i:t=Andante	!	!	!LO:TX:a:i:t=Andante	!	!	!LO:TX:t=P:problem=brak przenośnika oktawowego	!	!
!LO:TX:a:i:t=Komp&colon; przewodnik	!	!LO:DY:a	!LO:TX:a:i:t=Msza na 4ry Męzkie głosy Komp&colon; Przewodnik	!	!	!LO:TX:a:i:t=Msza na 4ry głosy Męzkie	!	!	!LO:TX:a:i:t=Msza na 4ry głosy Męzkie par Führer.	!	!
!	!	!	!	!	!	!LO:TX:a:i:t=Komp&colon; Führer	!	!	!	!	!
!	!	!LO:DY:rj	!	!	!	!	!	!	!	!	!
!	!	!LO:DY:a	!	!	!	!	!	!	!	!	!
8.C/	Ky-	p	8.E\	Ky-	.	8.G/	Ky-	.	8.G/	Ky-	.
16C/	-ri-	.	16E\	-ri-	.	16G/	-ri-	.	16c/	-ri-	.
4C/	-e	.	4E\	-e	.	4G/	-e	.	4c\	-e	.
8.r	.	.	8.r	.	.	8.r	.	.	8.r	.	.
16C/	e-	.	16G\	e-	.	16c\	e-	.	16e\	e-	.
=2	=2	=2	=2	=2	=2	=2	=2	=2	=2	=2	=2
4F\	-lei-	.	4G\	-lei-	.	4B\	-lei-	.	(>8.e\L	-lei-	.
.	.	.	.	.	.	.	.	.	16d\Jk)	.	.
4E\	-son,	.	4G\	-son,	.	4c\	-son	.	4c\	-son	.
4r	.	.	4r	.	.	4r	.	.	4r	.	.
=3	=3	=3	=3	=3	=3	=3	=3	=3	=3	=3	=3
4.D^>/	Ky-	.	4.G\	-Ky-	.	4.B\	Ky-	.	4.f/	Ky-	.
8C/	-ri-	.	8G\	-ri-	.	8c\	-ri-	.	8e/	-ri-	.
8F\	-e	.	8A\	-e	.	8c\	-e	.	8d/	-e	.
8F#X\	e-	.	8A\	e-	.	8c\	e-	.	8d/	e-	.
!LO:LB:g=original	!	!	!LO:LB:g=original	!	!	!LO:LB:g=original	!	!	!LO:LB:g=original	!	!
=4	=4	=4	=4	=4	=4	=4	=4	=4	=4	=4	=4
4G\	-lei-	.	4G\	-lei-	.	(<8.B/L	-lei-	.	(>8.d\L	-lei-	.
.	.	.	.	.	.	16A#X/Jk)	.	.	16c#X\Jk)	.	.
4GG/	-son.	.	4G\	-son,	.	4B/	-son.	.	4d\	-son	.
4r	.	.	4r	.	.	4r	.	.	4r	.	.
!LO:TX:a:t=P:problem=w źródle "p." zapisane na pięciolinii	!	!	!	!	!	!	!	!	!	!	!
!	!	!LO:DY:b:t=p.	!	!	!	!	!	!	!	!	!
.	.	p	.	.	.	.	.	.	.	.	.
=5	=5	=5	=5	=5	=5	=5	=5	=5	=5	=5	=5
!	!	!	!	!LO:MO:mod=Chri-	!	!	!	!	!	!	!
!	!	!	!	!	!	!LO:TX:a:t=P:problem=w źródle kauda pierwotnie skierowana w dół; poprawiona ołówkiem na skierowaną do góry	!	!	!	!	!
4E\	Chri-	.	(>8.G#X\L	Chry-	.	(>8.B/	Chri-	.	(>4.e\	Chri-	.
.	.	.	16F#X\Jk)	.	.	16A#X/)	.	.	.	.	.
4E\	-ste	.	4E\	-ste	.	4G#X/	-ste	.	.	.	.
.	.	.	.	.	.	.	.	.	8d\)	.	.
4E\	e-	.	4E\	e-	.	4A#/	e-	.	8c\	-ste	.
.	.	.	.	.	.	.	.	.	8B\	e-	.
=6	=6	=6	=6	=6	=6	=6	=6	=6	=6	=6	=6
4AA/	-lei-	.	(>8.Fn\L	-lei-	.	(<8.G#X/L	-lei-	.	(>8.d\L	-lei-	.
.	.	.	16E\Jk)	.	.	16A/Jk)	.	.	16c\Jk)	.	.
4AA/	-son	.	4E\	-son,	.	4A/	-son	.	4c\	-son,	.
8.r	.	.	8.r	.	.	8.r	.	.	8.r	.	.
16A\	e-	.	16A\	e-	.	16c\	e-	.	16e\	e-	.
=7	=7	=7	=7	=7	=7	=7	=7	=7	=7	=7	=7
4F#X\	-lei-	.	4A\	-lei-	.	4c\	-lei-	.	4e\	-lei-	.
(>8G\L	-son	.	4B\	-son	.	4B\	-son	.	4d\	-son	.
8D\J)	.	.	.	.	.	.	.	.	.	.	.
(<8BB/L	e-	.	4B\	e-	.	4d\	e-	.	4g\	e-	.
8GG/J)	.	.	.	.	.	.	.	.	.	.	.
!LO:LB:g=original	!	!	!LO:LB:g=original	!	!	!	!	!	!LO:LB:g=original	!	!
=8	=8	=8	=8	=8	=8	=8	=8	=8	=8	=8	=8
4D/	-lei-	.	4A\	-lei-	.	4c\	-lei-	.	4f#X\	-lei-	.
4E\	-son	.	4G\	-son	.	4B\	-son	.	4g\	-son	.
4C#X/	e-	.	4G\	e-	.	4A#X/	e-	.	4e\	e-	.
!	!	!	!	!	!	!LO:LB:g=original	!	!	!	!	!
=9	=9	=9	=9	=9	=9	=9	=9	=9	=9	=9	=9
2.D/	-lei-	.	(>4G\	-le-	.	(>4B\	-lei-	.	2d\	-le-	.
.	.	.	4A\	.	.	2c\)	.	.	.	.	.
.	.	.	4F#X\)	-i-	.	.	.	.	(>8e\L	-i-	.
.	.	.	.	.	.	.	.	.	8d\J)	.	.
=10	=10	=10	=10	=10	=10	=10	=10	=10	=10	=10	=10
2GG/	-son.	.	2G\	-son,	.	2B\	-son.	.	2d\	-son.	.
4r	.	.	4r	.	.	4r	.	.	4r	.	.
=11	=11	=11	=11	=11	=11	=11	=11	=11	=11	=11	=11
!	!	!LO:DY:a	!	!	!	!	!	!LO:DY:a	!	!	!
!LO:TX:a:t=P:problem=w źródle "f" zapisane na pięciolinii	!	!	!	!	!	!	!	!	!LO:TX:a:t=P:problem=w źródle "f" zapisane na pięciolinii	!	!
!	!	!LO:DY:rj	!	!	!	!	!	!LO:DY:rj	!	!	!LO:DY:rj
!	!	!	!	!	!	!	!	!	!	!	!LO:DY:b
8.GG/	Ky-	f	8.D\	Ky-	.	8.B\	Ky-	f	8.fn\L	Ky-	f
16GG/	-ri-	.	16G\	-ri-	.	16B\	-ri-	.	16d\Jk	-ri-	.
4GG/	-e	.	4G\	-e	.	4B\	-e	.	4d\	-e	.
8.r	.	.	8.r	.	.	8.r	.	.	8.r	.	.
!LO:TX:a:t=P:problem=w źródle "p" zapisane na pięciolinii	!	!	!	!	!	!	!	!	!	!	!
!	!	!LO:DY:rj	!	!	!	!	!	!	!	!	!
!	!	!LO:DY:b	!	!	!	!	!	!	!	!	!
16G\	e-	p	16G\	e-	.	16B\	e-	.	16d\	e-	.
!	!	!	!	!	!	!	!	!	!LO:LB:g=original	!	!
=12	=12	=12	=12	=12	=12	=12	=12	=12	=12	=12	=12
4G\	-lei-	.	4G\	-lei-	.	4A#X/	-lei-	.	4c#X\	-lei-	.
4GG/	-son	.	4G\	-son	.	4B/	-son	.	4d\	-son,	.
8.r	.	.	8.r	.	.	8.r	.	.	8.r	.	.
16GG/	e-	.	16G\	e-	.	16B^>/	e-	.	16d\	e-	.
!LO:LB:g=original	!	!	!LO:LB:g=original	!	!	!	!	!	!	!	!
=13	=13	=13	=13	=13	=13	=13	=13	=13	=13	=13	=13
2.C/	-lei-	.	(>4.G\	-le-	.	(>8c\L	-le-	.	2e\	-le-	.
.	.	.	.	.	.	8B\J)	.	.	.	.	.
.	.	.	.	.	.	2A#X/	-i-	.	.	.	.
.	.	.	8E\L	.	.	.	.	.	.	.	.
.	.	.	8D#X\	.	.	.	.	.	(>8f#X\L	.	.
.	.	.	8E\J)	-i-	.	.	.	.	8e\J)	-i-	.
=14	=14	=14	=14	=14	=14	=14	=14	=14	=14	=14	=14
!LO:TX:a:t=P:problem=w źródle "f" zapisane na pięciolin	!	!	!	!	!	!	!	!	!	!	!
!	!	!LO:DY:rj	!	!	!	!	!	!	!	!	!
!	!	!LO:DY:b	!	!	!	!	!	!	!	!	!
2BB/	-son	f	2F#X\	-son	.	(>2B\	-son	.	2d#X\	-son,	.
!	!	!	!	!	!LO:DY:a	!	!	!	!	!	!
!	!	!	!LO:TX:a:t=P:problem=w źródle "f" zapisane na pięciolinii	!	!	!	!	!	!LO:TX:a:t=P:problem=w źródle "f" zapisane na pięciolinii	!	!
!	!	!	!	!	!LO:DY:rj	!	!	!	!	!	!LO:DY:rj
!	!	!	!	!	!	!	!	!	!	!	!LO:DY:b
4B^>\	e-	.	4B\	e	f	4B\)	.	.	4B\	e-	ff
!	!	!	!	!	!	!LO:LB:g=original	!	!	!	!	!
=15	=15	=15	=15	=15	=15	=15	=15	=15	=15	=15	=15
2E^>\	-lei-	.	8.G\	Ky-	.	8.B\	Ky-	.	2e\	-lei-	.
.	.	.	16F#X\	-ri-	.	16A/	-ri-	.	.	.	.
.	.	.	4E\	-e	.	4G/	-e	.	.	.	.
4E\	-son,	.	4A\	e-	.	4c\	e-	.	4e\	-son	.
!	!	!	!	!	!	!	!	!	!LO:LB:g=original	!	!
=16	=16	=16	=16	=16	=16	=16	=16	=16	=16	=16	=16
!	!LO:MO:mod=Chri	!	!	!	!	!	!	!	!	!	!
4E\	Chry-	.	(>8.G\L	-lei-	.	8.B\	-le-	.	4e\	Chri-	.
.	.	.	16F#X\Jk)	.	.	16A/	-i-	.	.	.	.
4E\	-ste	.	4E\	-son	.	4G/	-son	.	4e\	-ste	.
4E\	e-	.	4A\	e-	.	4c\	e-	.	4e\	e-	.
=17	=17	=17	=17	=17	=17	=17	=17	=17	=17	=17	=17
!LO:TX:t=P:problem=nadliczbowa sylaba	!	!	!	!	!	!	!	!	!	!	!
(>4E\	-le-	.	4G\	-le-	.	(>2.B\	-lei-	.	4e\	-le-	.
4Dn/	.	.	2G#X\	-i	.	.	.	.	[>2f\	.	.
4D-X/)	.	.	.	.	.	.	.	.	.	.	.
!	!	!	!LO:LB:g=original	!	!	!	!	!	!	!	!
=18	=18	=18	=18	=18	=18	=18	=18	=18	=18	=18	=18
4C/	-lei-	.	4A\	lei-	.	4c\)	.	.	8.f\L]	.	.
.	.	.	.	.	.	.	.	.	16c\Jk	-i-	.
4C/	-son	.	4Fn\	-son	.	4A/	-son	.	4c\	-son	.
4C/	e-	.	4F\	e-	.	4A/	e-	.	4c\	e-	.
!LO:LB:g=original	!	!	!	!	!	!	!	!	!	!	!
=19	=19	=19	=19	=19	=19	=19	=19	=19	=19	=19	=19
4C/	-lei-	.	(>8.G\L	-lei-	.	(>8.B-X\L	-lei-	.	4.c\	-lei-	.
.	.	.	16F\Jk)	.	.	16A\Jk)	.	.	.	.	.
4C/	-son	.	4E\	-son	.	4G/	-son	.	.	.	.
.	.	.	.	.	.	.	.	.	8d\	.	.
4C/	e-	.	4E\	e-	.	4G/	e-	.	8c\	-son	.
!	!	!	!	!	!	!	!	!	!LO:TX:a:t=P:problem=w źródle bemol zapisany ołówkiem	!	!
.	.	.	.	.	.	.	.	.	8B-\	e-	.
!	!	!	!	!	!	!LO:LB:g=original	!	!	!	!	!
=20	=20	=20	=20	=20	=20	=20	=20	=20	=20	=20	=20
(<4C#X/	-lei-	.	4E\	-lei-	.	4G/	-lei-	.	4A/	-lei-	.
4D/)	.	.	4D\	-son	.	4F/	-son	.	4A/	-son	.
4F^>\	-son,	.	4A\	e-	.	4A/	e-	.	4d\	e-	.
!	!	!	!	!	!	!	!	!	!LO:LB:g=original	!	!
=21	=21	=21	=21	=21	=21	=21	=21	=21	=21	=21	=21
(<8.D/L	e-	.	2.A\	-lei	.	(<8.A/L	-lei-	.	(>8.f\L	-le-	.
16E/Jk)	.	.	.	.	.	16c#X/Jk	.	.	16e\Jk)	.	.
!	!	!LO:HP:a	!	!	!	!	!	!	!	!	!
4F\	-lei-	>	.	.	.	4d\)	.	.	2d\	-i-	.
4F#X\	.	]]	.	.	.	4cn\	.	.	.	.	.
=22	=22	=22	=22	=22	=22	=22	=22	=22	=22	=22	=22
2.G^>\	-son.	.	2.G\	son,	.	2.Bn\	-son.-	.	(>2d\	-son	.
!LO:TX:a:t=P:problem=w źródle "p." zapisane na pięciolinii	!	!	!	!	!	!	!	!	!	!	!
!	!	!LO:DY:b:t=p.	!	!	!	!	!	!	!	!	!
.	.	p	.	.	.	.	.	.	4d#X\)	.	.
!LO:TX:a:t=P:problem=w źródle "×" zapisane nad kreską taktową	!	!	!	!	!	!	!	!	!	!	!
!LO:TX:a:t=P:problem=w źródle "×" zapisane ołówkiem	!	!	!LO:TX:a:t=P:problem=w źródle "×" zapisane ołówkiem	!	!	!LO:TX:a:t=P:problem=w źródle "×" zapisane ołówkiem	!	!	!LO:TX:a:t=P:problem=w źródle "×" zapisane ołówkiem	!	!
!LO:TX:a:t=×	!	!	!LO:TX:a:t=×	!	!	!LO:TX:a:t=×	!	!	!LO:TX:a:t=×	!	!
=23	=23	=23	=23	=23	=23	=23	=23	=23	=23	=23	=23
8.C/	Ky-	.	8.G\	Ky-	.	8.cn\	-Ky-	.	8.e\L	Ky-	.
16C/	-ri-	.	16F\	-ri-	.	16B\	-ri-	.	16d\Jk	-ri-	.
4C/	-e	.	4E\	-e	.	4c\	-e	.	4c\	-e	.
8.r	.	.	8.r	.	.	8.r	.	.	8.r	.	.
16C/	e-	.	16E\	e-	.	16G/	e-	.	16c\	e-	.
!LO:LB:g=original	!	!	!LO:LB:g=original	!	!	!	!	!	!	!	!
=24	=24	=24	=24	=24	=24	=24	=24	=24	=24	=24	=24
4GG/	-lei-	.	(>8.D\L	-lei-	.	4G/	-lei-	.	(>8.B\L	-lei-	.
.	.	.	16F\Jk)	.	.	.	.	.	16d\Jk)	.	.
4C/	-son	.	4E\	-son	.	4G/	-son	.	4c\	-son.	.
4r	.	.	4r	.	.	4r	.	.	4r	.	.
!	!	!	!	!	!	!LO:LB:g=original	!	!	!	!	!
=25	=25	=25	=25	=25	=25	=25	=25	=25	=25	=25	=25
!	!	!	!LO:TX:a:t=P:problem=w źródle "f" zapisane na pięciolinii	!	!	!	!	!	!	!	!
!	!	!	!	!	!LO:DY:rj	!	!	!	!	!	!
!	!	!	!	!	!LO:DY:a	!	!	!	!	!	!
8.D^>/	Ky-	.	8.A\	Ky-	f	8.d\	Ky-	.	8.f\	Ky-	.
16D/	-ri-	.	16G\	-ri-	.	16c#X\	-ri-	.	16e\	-ri-	.
4D/	-e	.	4F\	-e	.	4d\	-e	.	4d\	-e	.
8.r	.	.	8.r	.	.	8.r	.	.	8.r	.	.
16D/	e-	.	16F\	e-	.	16A/	e-	.	16d\	e-	.
!	!	!	!	!	!	!	!	!	!LO:LB:g=original	!	!
=26	=26	=26	=26	=26	=26	=26	=26	=26	=26	=26	=26
8.E\	-lei-	.	4G\	-lei-	.	4A/	-lei-	.	8.c#X\L	-lei-	.
16C#X/	.	.	.	.	.	.	.	.	16e\Jk	.	.
4D/	-son.	.	4F\	-son	.	4A/	-son.	.	4d\	-son,	.
4r	.	.	4r	.	.	4r	.	.	4r	.	.
!	!	!	!LO:LB:g=original	!	!	!	!	!	!	!	!
=27	=27	=27	=27	=27	=27	=27	=27	=27	=27	=27	=27
2D/	Ky-	.	(>4A\	Ky-	.	4A/	Ky-	.	2f\	Ky-	.
!LO:TX:a:t=P:problem=w źródle "Dona" zapisane ołówkiem	!	!	!LO:TX:a:t=P:problem=w źródle "Dona" zapisane ołówkiem	!	!	!LO:TX:a:t=P:problem=w źródle "Dona" zapisane ołówkiem	!	!	!	!	!
!LO:TX:a:i:t=Dona	!	!	!LO:TX:a:i:t=Dona	!	!	!LO:TX:a:i:t=Dona	!	!	!	!	!
.	.	.	4G\)	.	.	4Bn\	ri-	.	.	.	.
!	!	!	!	!	!	!	!	!	!LO:TX:a:t=P:problem=w źródle "Dona" zapisane ołówkiem	!	!
!	!	!	!	!	!	!	!	!	!LO:TX:a:i:t=Dona	!	!
4Cn/	-ri-	.	4G\	-ri-	.	4cn\	-e	.	4e\	-ri-	.
!LO:LB:g=original	!	!	!LO:LB:g=original	!	!	!	!	!	!	!	!
=28	=28	=28	=28	=28	=28	=28	=28	=28	=28	=28	=28
(<4GG/	-e-	.	(4F\	-e-	.	(>4B\	e-	.	(>4d\	-e	.
4AA/	.	.	4E\	.	.	4c\	.	.	4c\)	.	.
!	!	!	!	!	!LO:HP:a	!	!	!	!	!	!
4FF/)	.	.	4F\)	.	<[	4A/)	e-	.	4d\	e-	.
=29	=29	=29	=29	=29	=29	=29	=29	=29	=29	=29	=29
!	!	!	!	!	!LO:HP:a	!	!	!	!	!	!
2.GG^>/	-lei-	.	4E\	-lei-	>	4G/	-le-	.	(<4G/	-le-	.
.	.	.	(>4D#X\	.	.	4F#X/	.	.	4A/	.	.
.	.	.	.	.	]	.	.	.	.	.	.
.	.	.	4Dn\)	.	.	4Fn/	-i-	.	4B/)	-i-	.
!	!	!	!	!	!	!LO:LB:g=original	!	!	!	!	!
=30	=30	=30	=30	=30	=30	=30	=30	=30	=30	=30	=30
2C/	-son	.	(<4C/	-son	.	4E/	-son	.	2c\	-son	.
!	!	!	!	!	!LO:HP:a	!	!	!	!	!	!
.	.	.	.	.	<	.	.	.	.	.	.
.	.	.	4D/)	.	.	4F/	e-	.	.	.	.
4C/	e-	.	4E\	e-	[[	4G/	-e-	.	4c\	e-	.
=31	=31	=31	=31	=31	=31	=31	=31	=31	=31	=31	=31
!	!	!	!	!	!LO:HP:a	!	!	!	!	!	!
2.C/	-lei-	.	(>4F\	-le-	>	4A/	-lei-	.	2.c\	-lei-	.
.	.	.	4E\)	-i-	]	4G/	.	.	.	.	.
.	.	.	4D#X\	.	.	4F#X/	.	.	.	.	.
=32	=32	=32	=32	=32	=32	=32	=32	=32	=32	=32	=32
2.C^>/	-son	.	2.E\	-son.	.	2.G^>/	-son.	.	2.c\	-son.	.
==	==	==	==	==	==	==	==	==	==	==	==
*-	*-	*-	*-	*-	*-	*-	*-	*-	*-	*-	*-
!!!system-decoration: [(s1,s2,s3,s4)]
!!!RDF**kern: > = above
!!!RDF**kern: < = below
!!!EED: Antoni Szymański
!!!EEV: 2021-02-06
!!!ENC: Kamil Watkowski
!!!END: 2021-02-02
